!!!COM: Johanna Kinkel
!!!CNT: Deutsch
!!!TXO: Deutsch
!!!OTL: Rheinsage
!!!LYR: Geibel
!!!OPR: 6 Geditche von E. Geibel
!!!OPS: Op. 8
!!!ONM: No. 2
!!!ENC: Ben Fuhrman
!!!YOR: Johanna Kinkel: Lieder, volume 1 Poetry by Geibel and Goethe
!!!YOR: Bryn Mawr, Fildegard Publishing CO, 2000
!!!ODT: 1838
!!NB: Only vocal melody encoded.
!!NB: First instance of melodic material only encoded.
!!created: 2/23/10 1:02PM
!!proofed and posted: 2/23/10 1:02PM
**kern	**silbe
*clef G2	*
*k[b-e-]	*
*M4/4	*
*MM[Lento Maestoso]	*
{4d	{Am
=1	=1
4.g	Rhein,
8g	am
4g	gru2-
4a	-nen
=2	=2
(4.b-	Rhei
8cc)	|
4dd	-ne,
4cc	da
=3	=3
4b-	ist
8a	so
8g	|
4a	mild
4d	die
=4	=4
2g}	Nacht!}
4r	.
{4d	{die
=5	=5
4.g	Re-
8g	-ben-
4g	-hu2-
4a	-gel
=6	=6
(4.b	lie-
8cc)	|
4dd	-gen
8cc	in
8dd	|
=7	=7
4.ee-	gold'-
8dd	-ner
4.dd	Mon-
8cc	-des-
=8	=8
2b-}	-pracht.}
4r	.
{4b-	{Und
=9	=9
4b-	an
4g-	den
4.d-	HU2-
8d-	-geln
=10	=10
(4.d-	wan-
8e-)	|
4d-	-delt
8r	.
8d-	ein
=11	=11
4g-	ho-
4d-	-her
4a-	Schat-
4dd-	-ten
=12	=12
2b--}	her}
4r	.
{4an	{mit
=13	=13
4g	Schwert
4f#	und
4g	Pur-
4a	-pur-
=14	=14
(4.b	-man-
8cc)	|
4dd	-tel,
4cc	die
=15	=15
(4b	Kro-
ccq	|
bq	|
8a	-ne
8g	von
4a)	Gol-
4d	-de
=16	=16
2g}	schwer.}
2r	.
==	==
*-	*-
